optimized/24/solid/power.svg

<svg xmlns="http://www.w3.org/2000/svg" viewBox="0 0 24 24">
  <path fill-rule="evenodd" d="M12 2.25C12.4142 2.25 12.75 2.58579 12.75 3V12C12.75 12.4142 12.4142 12.75 12 12.75C11.5858 12.75 11.25 12.4142 11.25 12V3C11.25 2.58579 11.5858 2.25 12 2.25ZM6.16637 5.10571C6.45926 5.3986 6.45926 5.87348 6.16637 6.16637C2.94454 9.38819 2.94454 14.6118 6.16637 17.8336C9.38819 21.0555 14.6118 21.0555 17.8336 17.8336C21.0555 14.6118 21.0555 9.38819 17.8336 6.16637C17.5407 5.87348 17.5407 5.3986 17.8336 5.10571C18.1265 4.81282 18.6014 4.81282 18.8943 5.10571C22.7019 8.91332 22.7019 15.0867 18.8943 18.8943C15.0867 22.7019 8.91332 22.7019 5.10571 18.8943C1.2981 15.0867 1.2981 8.91332 5.10571 5.10571C5.3986 4.81282 5.87348 4.81282 6.16637 5.10571Z" clip-rule="evenodd"/>
</svg>

<svg xmlns="http://www.w3.org/2000/svg" viewBox="0 0 24 24" fill="currentColor" aria-hidden="true">
  <path fill-rule="evenodd" d="M12 2.25a.75.75 0 01.75.75v9a.75.75 0 01-1.5 0V3a.75.75 0 01.75-.75zM6.166 5.106a.75.75 0 010 1.06 8.25 8.25 0 1011.668 0 .75.75 0 111.06-1.06c3.808 3.807 3.808 9.98 0 13.788-3.807 3.808-9.98 3.808-13.788 0-3.808-3.807-3.808-9.98 0-13.788a.75.75 0 011.06 0z" clip-rule="evenodd"/>
</svg>
